assets/images/icons/phone-v2.svg

<svg width="20" height="20" viewBox="0 0 20 20" fill="none" xmlns="http://www.w3.org/2000/svg">
<g id="fi_126341" clip-path="url(#clip0_228_3982)">
<g id="Group">
<g id="Group_2">
<path id="Vector" d="M15.2051 13.2304C14.5517 12.5853 13.736 12.5853 13.0867 13.2304C12.5915 13.7215 12.0962 14.2126 11.6093 14.712C11.4761 14.8494 11.3638 14.8785 11.2014 14.7869C10.881 14.6121 10.5397 14.4706 10.2317 14.2792C8.79592 13.3761 7.59315 12.2149 6.52773 10.9081C5.99918 10.2589 5.52889 9.56385 5.20011 8.78143C5.13352 8.62328 5.14601 8.51924 5.27502 8.39022C5.77028 7.91162 6.25305 7.42052 6.73998 6.92943C7.41836 6.24689 7.41836 5.44782 6.73582 4.76112C6.34877 4.36991 5.96172 3.98703 5.57467 3.59582C5.17514 3.19628 4.77977 2.79259 4.37607 2.39721C3.72267 1.76046 2.90695 1.76046 2.25771 2.40138C1.75829 2.89247 1.27968 3.39605 0.771944 3.87882C0.301659 4.32413 0.0644358 4.86933 0.014494 5.50609C-0.0645804 6.54238 0.18929 7.5204 0.547206 8.47346C1.27968 10.4462 2.39505 12.1983 3.74764 13.8047C5.57467 15.9772 7.75546 17.696 10.3067 18.9363C11.4553 19.4939 12.6456 19.9226 13.9399 19.9934C14.8305 20.0433 15.6046 19.8186 16.2247 19.1235C16.6493 18.6491 17.1279 18.2163 17.5773 17.7626C18.2432 17.0884 18.2474 16.2727 17.5857 15.6068C16.7949 14.8119 16 14.0212 15.2051 13.2304Z" fill="#7FB51F"/>
<path id="Vector_2" d="M14.4098 9.91346L15.9455 9.65126C15.7042 8.24041 15.0383 6.96273 14.027 5.94725C12.9574 4.87767 11.6048 4.20345 10.1149 3.99536L9.89844 5.53939C11.0513 5.7017 12.1 6.22193 12.9282 7.05013C13.7107 7.83255 14.2226 8.82306 14.4098 9.91346Z" fill="#7FB51F"/>
<path id="Vector_3" d="M16.8124 3.23789C15.0394 1.46496 12.7962 0.34543 10.3199 0L10.1035 1.54403C12.2427 1.84368 14.1821 2.81338 15.7136 4.34077C17.1661 5.79324 18.1192 7.6286 18.4646 9.64708L20.0003 9.38488C19.5966 7.04595 18.4937 4.92342 16.8124 3.23789Z" fill="#7FB51F"/>
</g>
</g>
</g>
<defs>
<clipPath id="clip0_228_3982">
<rect width="20" height="20" fill="white"/>
</clipPath>
</defs>
</svg>

<svg xmlns="http://www.w3.org/2000/svg" width="20" height="20" fill="none"><g fill="#7FB51F" clip-path="url(#a)"><path d="M15.205 13.23c-.653-.645-1.469-.645-2.118 0-.495.492-.99.983-1.478 1.482-.133.137-.245.167-.408.075-.32-.175-.661-.316-.97-.508-1.435-.903-2.638-2.064-3.703-3.37-.529-.65-1-1.345-1.328-2.128-.066-.158-.054-.262.075-.39.495-.48.978-.97 1.465-1.462.678-.682.678-1.481-.004-2.168-.387-.391-.774-.774-1.161-1.165-.4-.4-.795-.803-1.199-1.199-.653-.637-1.47-.637-2.118.004-.5.491-.978.995-1.486 1.478-.47.445-.708.99-.758 1.627C-.065 6.542.19 7.52.547 8.473c.733 1.973 1.848 3.725 3.2 5.332a19.8 19.8 0 0 0 6.56 5.131c1.148.558 2.339.987 3.633 1.057.89.05 1.665-.174 2.285-.87.424-.474.903-.907 1.352-1.36.666-.675.67-1.49.009-2.156q-1.188-1.192-2.38-2.377m-.796-3.317 1.535-.262a6.86 6.86 0 0 0-1.918-3.704 6.83 6.83 0 0 0-3.912-1.952L9.898 5.54a5.3 5.3 0 0 1 3.03 1.511 5.3 5.3 0 0 1 1.482 2.863m2.402-6.676A11.32 11.32 0 0 0 10.32 0l-.216 1.544a9.82 9.82 0 0 1 5.61 2.797 9.8 9.8 0 0 1 2.75 5.306L20 9.385a11.4 11.4 0 0 0-3.188-6.147"/></g><defs><clipPath id="a"><path fill="#fff" d="M0 0h20v20H0z"/></clipPath></defs></svg>
